src/standard/science/test-tube.svg

<svg xmlns="http://www.w3.org/2000/svg" viewBox="0 0 36 36">
  <path d="M27 30.88h-1.38V9.54a2.62 2.62 0 1 0-3.16-3.16h-3.34v-.76H20a.62.62 0 1 0 0-1.24h-1.5a.62.62 0 0 0-.62.62v4.38h-4.76V5a.62.62 0 0 0-.62-.62H11a.62.62 0 0 0 0 1.24h.88V26a3.62 3.62 0 0 0 7.24 0V7.62h3.34a2.6 2.6 0 0 0 1.92 1.92v21.34H9a.62.62 0 0 0 0 1.24h18a.62.62 0 1 0 0-1.24Zm-11.5-2.5A2.39 2.39 0 0 1 13.12 26v-3.38H15a.62.62 0 0 0 0-1.24h-1.88v-1.76H15a.62.62 0 0 0 0-1.24h-1.88v-1.76H15a.62.62 0 0 0 0-1.24h-1.88v-1.76H15a.62.62 0 0 0 0-1.24h-1.88v-1.76h4.76V26a2.39 2.39 0 0 1-2.38 2.38ZM23.62 7A1.38 1.38 0 1 1 25 8.38 1.38 1.38 0 0 1 23.62 7Z"/>
</svg>

<svg id="ae7a086d-96b1-44b5-8204-806e77176858" data-name="Icon" xmlns="http://www.w3.org/2000/svg" viewBox="0 0 36 36">
  <path d="M27,30.88H25.62V9.54a2.62,2.62,0,1,0-3.16-3.16H19.12V5.62H20a.62.62,0,1,0,0-1.24H18.5a.62.62,0,0,0-.62.62V9.38H13.12V5a.62.62,0,0,0-.62-.62H11a.62.62,0,0,0,0,1.24h.88V26a3.62,3.62,0,0,0,7.24,0V7.62h3.34a2.6,2.6,0,0,0,1.92,1.92V30.88H9a.62.62,0,0,0,0,1.24H27a.62.62,0,1,0,0-1.24Zm-11.5-2.5A2.39,2.39,0,0,1,13.12,26V22.62H15a.62.62,0,0,0,0-1.24H13.12V19.62H15a.62.62,0,0,0,0-1.24H13.12V16.62H15a.62.62,0,0,0,0-1.24H13.12V13.62H15a.62.62,0,0,0,0-1.24H13.12V10.62h4.76V26A2.39,2.39,0,0,1,15.5,28.38ZM23.62,7A1.38,1.38,0,1,1,25,8.38,1.38,1.38,0,0,1,23.62,7Z"/>
</svg>
